!!!SOCIAL_FUNCTION:	songs connected with legends
!!!PDT:	1918

Specific Region: Dakotas, Minnesota, Montana, Nebraska
!!!REG: Dakotas and Montana
!!!LING_GROUP: Siouan
!!!LANG: Tone
!!!OTL@ENG: Song of a Ghost
!!!ONM: No. 219
**kern
*Imale
*clefF4
*k[f#c#g#d#]
*M3/4
*MM108
8c#
8c#
4.c#
8d#
=1||
*M2/4
4d#
4c#
=2||
*M3/4
8G#
8G#
4.G#
8A#
=3||
*M2/4
4G#
4F#
=4||
*M3/4
8E
8E
4.F#
8A
=5||
*M2/4
4F#
4E
=6
4C#
4E
=7||
*M3/4
8F#
8F#
8F#
8F#
4E
=8
[2.C#
=9||
*M2/4
2C#]
=10
[2C#
=11
4.C#]
8C#
=12
4.G#
8G#
=13
4.G#
8G#
=14||
*M3/4
4.G#
8B
4G#
=15
2F#
4F#
=16
8F#
8F#
4F#
12A
12F#
12F#
=17
2E
4E
=18
8C#
8C#
4C#
12G#
12G#
12G#
=19
2.F#
=20||
*M2/4
4E
4F#
=21
16F#
8.E
16E
8.C#
=22||
*M3/4
2.C#
=23
4C#
2r
==
*-
!!!CNT: Native American -- Sioux
!!!MRD: 1911/07//-1914///
!!!OCL: Frances Densmore
!!!YOR1: Teton Sioux Music, Bulletin 61,
!!!YOR2: Bureau of American Ethnology, Smithsonian Institution
!!!PPR: Government Printing Office
!!!PPP: Washington, D.C.
!!!PDT: 1918///
!!!ENC: Craig Stuart Sapp
!!!END: 2002/03/25/
!!!EEV: 2002/03/31/
!!!AGN: Legend Song
!!!MPN@@SIO: Waha'chungka-nong'pa
!!!MPN@ENG: Two Shields
!!!TXO: Teton Sioux
!!!MLC: Standing Rock Reservation, South Dakota, United States of America
!!!ARL: 45.9/-100.7#
!!!catalog: Catalogue No. 542
!!!PPG: 497
!!!EFL: 224/245
!!!VTS: 1518737463
